tools/download-figma-icons/icons/solid/family-2.svg

<svg width="25" height="24" viewBox="0 0 25 24" fill="none" xmlns="http://www.w3.org/2000/svg">
<path d="M8.99069 14.01C8.82572 13.6425 8.72074 13.2375 8.67575 12.825C8.28582 12.4125 7.79842 12.03 7.21354 11.7525C7.86591 11.07 8.28582 10.0725 8.28582 8.955C8.28582 6.915 6.92109 5.25 5.24892 5.25C3.57675 5.25 2.19703 6.915 2.19703 8.955C2.19703 10.0725 2.62444 11.07 3.26931 11.7525C1.36469 12.6675 0.517357 14.685 0.382383 15.03C0.127433 15.5625 -0.217499 16.515 0.187422 17.1825C0.307398 17.3925 0.607339 17.745 1.22972 17.745H7.01857C7.02607 17.2875 7.15355 16.7925 7.401 16.2825C7.53597 15.945 8.01588 14.865 8.99069 14.01Z" fill="black"/>
<path d="M23.6128 15.03C23.4778 14.685 22.623 12.6675 20.7184 11.7525C21.3708 11.07 21.7907 10.0725 21.7907 8.955C21.7907 6.915 20.4259 5.25 18.7538 5.25C17.0816 5.25 15.7094 6.915 15.7094 8.955C15.7094 10.0725 16.1368 11.07 16.7817 11.7525C16.2043 12.03 15.7169 12.4125 15.327 12.8175C15.282 13.2375 15.1695 13.635 15.0045 14.01C15.9868 14.865 16.4667 15.945 16.6017 16.2825C16.8417 16.7925 16.9691 17.2875 16.9766 17.745H22.773C23.3879 17.745 23.6878 17.3925 23.8153 17.1825C24.2202 16.5075 23.8753 15.57 23.6203 15.03H23.6128Z" fill="black"/>
<path d="M14.0297 14.7C13.8498 14.5575 13.6548 14.445 13.4448 14.3475C13.9247 13.8525 14.2322 13.1175 14.2322 12.2925C14.2322 10.7925 13.2274 9.5625 11.9976 9.5625C10.7679 9.5625 9.76306 10.7925 9.76306 12.2925C9.76306 13.1175 10.0705 13.8525 10.5504 14.3475C10.3404 14.445 10.1455 14.565 9.96552 14.7C8.97571 15.435 8.51081 16.5375 8.42832 16.755C8.30835 17.0025 8.15837 17.385 8.15088 17.745C8.13588 17.955 8.17337 18.165 8.27835 18.3375C8.36833 18.4875 8.59329 18.75 9.0432 18.75H14.952C15.4094 18.75 15.6269 18.4875 15.7244 18.3375C15.8294 18.1575 15.8669 17.9475 15.8519 17.745C15.8444 17.385 15.6944 17.0025 15.5744 16.755C15.4919 16.5375 15.027 15.435 14.0372 14.7H14.0297Z" fill="black"/>
</svg>

<svg xmlns="http://www.w3.org/2000/svg" width="25" height="24" fill="none" viewBox="0 0 25 24"><path fill="currentColor" d="M8.99 14.01a4 4 0 0 1-.314-1.185 4.9 4.9 0 0 0-1.462-1.072c.652-.683 1.072-1.68 1.072-2.798 0-2.04-1.365-3.705-3.037-3.705S2.197 6.915 2.197 8.955c0 1.117.427 2.115 1.072 2.797-1.904.915-2.752 2.933-2.887 3.278-.255.533-.6 1.485-.195 2.153.12.21.42.562 1.043.562h5.789c.007-.457.135-.953.382-1.463.135-.337.615-1.417 1.59-2.272m14.622 1.02c-.135-.345-.99-2.362-2.895-3.277.653-.683 1.073-1.68 1.073-2.798 0-2.04-1.365-3.705-3.037-3.705s-3.045 1.665-3.045 3.705c0 1.117.428 2.115 1.073 2.797a5.1 5.1 0 0 0-1.455 1.066 4 4 0 0 1-.322 1.192c.982.855 1.462 1.935 1.597 2.272.24.51.367 1.006.375 1.463h5.796c.615 0 .915-.353 1.042-.562.405-.675.06-1.613-.195-2.153zm-9.583-.33a3 3 0 0 0-.585-.352c.48-.496.787-1.23.787-2.056 0-1.5-1.005-2.73-2.234-2.73s-2.235 1.23-2.235 2.73c0 .825.307 1.56.787 2.056q-.315.148-.584.352c-.99.735-1.455 1.838-1.538 2.055-.12.248-.27.63-.277.99-.015.21.022.42.127.592.09.15.315.413.765.413h5.909a.87.87 0 0 0 .772-.413c.105-.18.143-.39.128-.592-.008-.36-.158-.742-.278-.99-.082-.217-.547-1.32-1.537-2.055z"/></svg>
